X:1
T:Title
%%score { 1 | 2 }
L:1/8
M:4/4
K:Eb
V:1 treble nm="Grand Piano"
V:2 bass 
V:1
 z4 z2[Q:1/4=100] E>F | G>G G>F E2 E>G | [GB]>[GB] [GB]>[FA] [EG]2 [GB]2 | [FA]4 [DF]2 [Dc]2 | %4
 B4 G2 E>F | G>G G>F E2 E>G | [GB]>[GB] [GB]>[FA] [EG]2 [EG]2 | [EB]3 [EB] [DA]2 [DF]2 | %8
[M:3/4] E6 |[M:1/4] E>F |[M:4/4] G>G G>G G>F E>G | [EGB]4 [B,EG]2 [EGB]2 | [DFA]4 [A,DF]2 [Dc]2 | %13
 [EB]4 [EG]2 [GB]2 | [Ge]2 [Ge]2 [Ge]3 [Ge] | [Ae]2 [Ac]2 [GB]2 [EG]2 | [EB]3 [EB] [DA]2 [DF]2 | %17
[M:3/4] [B,E]6 |] %18
V:2
 z4 z2 [E,G,]>[E,A,D] | [E,B,E]>[E,B,E] [E,B,E]>[E,A,D] [E,G,]2 [E,G,]>[E,B,E] | %2
 [E,E]>[E,E] [E,E]>[E,B,] [E,B,]2 [E,B,]2 | [B,,B,]4 [B,,B,]2 [B,,A,]2 | %4
 [E,G,E]4 [E,B,E]2 [E,G,]>[E,A,D] | [E,B,E]>[E,B,E] [E,B,E]>[E,A,D] [E,G,]2 [E,G,]>[E,B,E] | %6
 [E,E]>[E,E] [E,E]>[E,B,] [E,B,]2 [E,B,]2 | [B,,G,]3 [B,,G,] [B,,F,]2 [B,,A,]2 |[M:3/4] [E,G,B,]6 | %9
[M:1/4] [E,G,]>[E,A,D] |[M:4/4] [E,B,E]>[E,B,E] [E,B,E]>[E,B,E] [E,B,E]>[E,A,D] [E,G,]>[E,B,E] | %11
 E,4 E,2 E,2 | B,,4 B,,2 [B,,F,]2 | [E,G,]4 [E,B,]2 [E,E]2 | [E,B,]2 [E,B,]2 [E,B,]3 [E,B,] | %15
 [A,C]2 [A,E]2 [E,E]2 [E,B,]2 | [B,,G,]3 [B,,G,] [B,,F,]2 [B,,A,]2 |[M:3/4] [E,G,]6 |] %18

